X: 23
T: The Romps, or The Merry Girls of Scarborough
P: P.12 #1
%R: hornpipe, reel
B: "Twenty Four Favourite Dances for the Year 1784", Thomas Straight, ed. p.12 #1
F: http://www.vwml.org/browse/browse-collections-dance-tune-books/browse-straights1784#
Z: 2014 John Chambers <jc:trillian.mit.edu>
M: 2/4
L: 1/8
K: G
% - - - - - - - - - - - - - - - - - - - - - - - - - - - - -
|:\
d>dB>B | g3e | d>BA>G | A4 |\
d>dB>B | g3b | a>gf>e | d4 :|
|:\
d>dB>B | e4 | c>cA>A | d4 |\
B>Gg2 | d>Bg2 | e>cB>A | G4 :|
% - - - - - - - - - - Dance description - - - - - - - - - -
%%begintext align
%% The first Man sets to the 2d Wo: foot it and turns
%% her .|. the first Wo: sets to the 2d Man and turns him
%% :|. all four Hand round .|: right Hands and left :|:
%%endtext

%%sep 2 1 500
%%sep 1 1 500

